flaticon/symbols/inequality.svg

<svg xmlns="http://www.w3.org/2000/svg" width="32" height="32" viewBox="0 0 24 24">
    <path d="M 11.984375 6.796875 C 9.113281 6.796875 6.78125 9.128906 6.78125 11.996094 C 6.78125 14.867188 9.113281 17.199219 11.984375 17.199219 C 14.851562 17.199219 17.183594 14.867188 17.183594 11.996094 C 17.183594 9.128906 14.851562 6.796875 11.984375 6.796875 Z M 11.984375 16.398438 C 9.554688 16.398438 7.582031 14.425781 7.582031 11.996094 C 7.582031 9.570312 9.554688 7.597656 11.984375 7.597656 C 14.410156 7.597656 16.382812 9.570312 16.382812 11.996094 C 16.382812 14.425781 14.410156 16.398438 11.984375 16.398438 Z M 11.984375 16.398438"/>
    <path d="M11.984375 9.199219C10.4375 9.199219 9.183594 10.453125 9.183594 11.996094 9.183594 13.542969 10.4375 14.796875 11.984375 14.796875 13.527344 14.796875 14.78125 13.542969 14.78125 11.996094 14.78125 10.453125 13.527344 9.199219 11.984375 9.199219zM11.984375 14C10.878906 14 9.984375 13.101562 9.984375 11.996094 9.984375 10.894531 10.878906 9.996094 11.984375 9.996094 13.085938 9.996094 13.984375 10.894531 13.984375 11.996094 13.984375 13.101562 13.085938 14 11.984375 14zM11.621094 5.84375C11.707031 5.957031 11.839844 6.019531 11.984375 6.019531 12.125 6.019531 12.257812 5.957031 12.34375 5.84375 13.070312 4.917969 13.683594 3.660156 13.914062 2.640625 14.003906 2.230469 14.007812 1.84375 13.921875 1.496094L13.90625 1.433594C13.667969.5625 12.921875 0 12 0 11.089844 0 10.324219.578125 10.09375 1.4375L10.078125 1.488281C9.992188 1.84375 9.996094 2.230469 10.085938 2.640625 10.265625 3.441406 10.777344 4.761719 11.621094 5.84375zM12.25 5.351562zM10.867188 1.644531C11.035156 1.023438 11.582031.800781 12 .800781 12.417969.800781 12.964844 1.019531 13.140625 1.679688 13.199219 1.914062 13.195312 2.175781 13.132812 2.46875 12.984375 3.121094 12.582031 4.105469 11.984375 4.980469 11.414062 4.132812 11.019531 3.140625 10.867188 2.464844 10.804688 2.175781 10.800781 1.914062 10.867188 1.644531zM12.378906 18.152344C12.292969 18.042969 12.160156 17.976562 12.019531 17.976562 12.019531 17.976562 12.019531 17.976562 12.015625 17.976562 11.875 17.976562 11.742188 18.039062 11.652344 18.152344 10.832031 19.203125 10.277344 20.519531 10.085938 21.359375 9.996094 21.769531 9.992188 22.15625 10.082031 22.511719L10.09375 22.566406C10.328125 23.4375 11.078125 24 12 24 12.910156 24 13.675781 23.421875 13.90625 22.5625L13.917969 22.511719C14.007812 22.15625 14.003906 21.769531 13.910156 21.359375 13.730469 20.554688 13.222656 19.234375 12.378906 18.152344zM11.75 18.644531C11.75 18.644531 11.75 18.644531 11.746094 18.644531zM13.132812 22.355469C12.96875 22.976562 12.417969 23.199219 12 23.199219 11.582031 23.199219 11.035156 22.980469 10.855469 22.320312 10.800781 22.085938 10.804688 21.820312 10.867188 21.53125 11.015625 20.875 11.417969 19.886719 12.015625 19.015625 12.585938 19.863281 12.980469 20.855469 13.132812 21.535156 13.195312 21.824219 13.199219 22.085938 13.132812 22.355469zM22.566406 10.09375L22.511719 10.078125C22.15625 9.992188 21.769531 9.996094 21.359375 10.085938 20.546875 10.269531 19.214844 10.78125 18.136719 11.621094 18.027344 11.707031 17.960938 11.839844 17.960938 11.980469 17.960938 12.125 18.023438 12.257812 18.136719 12.34375 19.183594 13.164062 20.507812 13.722656 21.355469 13.914062 21.570312 13.960938 21.773438 13.984375 21.972656 13.984375 22.15625 13.984375 22.339844 13.960938 22.511719 13.917969L22.566406 13.90625C23.4375 13.671875 24 12.921875 24 12 24 11.089844 23.421875 10.324219 22.566406 10.09375zM22.359375 13.132812L22.320312 13.144531C22.085938 13.199219 21.820312 13.195312 21.53125 13.132812 20.867188 12.984375 19.871094 12.578125 19 11.984375 19.847656 11.417969 20.847656 11.023438 21.535156 10.867188 21.824219 10.804688 22.085938 10.800781 22.355469 10.867188 22.976562 11.035156 23.199219 11.582031 23.199219 12 23.199219 12.417969 22.980469 12.964844 22.359375 13.132812zM6.003906 12.019531C6.003906 11.875 5.941406 11.742188 5.828125 11.652344 4.898438 10.929688 3.648438 10.3125 2.640625 10.085938 2.230469 9.996094 1.84375 9.992188 1.492188 10.078125L1.433594 10.09375C.5625 10.332031 0 11.078125 0 12 0 12.910156.578125 13.675781 1.433594 13.90625L1.488281 13.921875C1.660156 13.960938 1.839844 13.984375 2.027344 13.984375 2.226562 13.984375 2.429688 13.960938 2.640625 13.914062 3.433594 13.734375 4.742188 13.226562 5.828125 12.378906 5.941406 12.292969 6.003906 12.160156 6.003906 12.019531zM2.464844 13.132812C2.175781 13.195312 1.914062 13.199219 1.644531 13.132812 1.023438 12.964844.800781 12.417969.800781 12 .800781 11.582031 1.019531 11.035156 1.679688 10.855469 1.789062 10.832031 1.90625 10.816406 2.027344 10.816406 2.167969 10.816406 2.3125 10.832031 2.46875 10.867188 3.113281 11.011719 4.09375 11.414062 4.96875 12.015625 4.074219 12.621094 3.089844 12.992188 2.464844 13.132812zM3.210938 5.925781C3.398438 6.238281 3.675781 6.507812 4.03125 6.734375 4.84375 7.25 6.222656 7.839844 7.464844 7.996094 7.484375 7.996094 7.503906 7.996094 7.523438 7.996094 7.644531 7.996094 7.761719 7.949219 7.847656 7.863281 7.949219 7.761719 7.996094 7.621094 7.980469 7.480469 7.824219 6.214844 7.226562 4.804688 6.734375 4.03125 6.507812 3.675781 6.238281 3.398438 5.929688 3.210938L5.875 3.179688C5.09375 2.730469 4.167969 2.863281 3.515625 3.515625 2.871094 4.160156 2.738281 5.109375 3.183594 5.882812zM4.082031 4.082031C4.269531 3.890625 4.566406 3.726562 4.910156 3.726562 5.097656 3.726562 5.300781 3.773438 5.511719 3.894531 5.714844 4.019531 5.902344 4.207031 6.058594 4.460938 6.445312 5.066406 6.90625 6.109375 7.109375 7.125 6.121094 6.917969 5.078125 6.453125 4.457031 6.058594 4.207031 5.898438 4.019531 5.714844 3.875 5.480469 3.554688 4.921875 3.785156 4.378906 4.082031 4.082031zM20.789062 18.074219C20.601562 17.761719 20.324219 17.492188 19.96875 17.265625 19.183594 16.765625 17.761719 16.15625 16.5 16.003906 16.359375 15.984375 16.21875 16.03125 16.117188 16.132812 16.015625 16.234375 15.96875 16.375 15.988281 16.515625 16.136719 17.746094 16.738281 19.136719 17.265625 19.96875 17.488281 20.324219 17.761719 20.601562 18.074219 20.789062L18.121094 20.820312C18.433594 20.996094 18.765625 21.082031 19.09375 21.082031 19.597656 21.082031 20.089844 20.878906 20.484375 20.484375 21.128906 19.839844 21.261719 18.890625 20.820312 18.128906zM19.917969 19.917969C19.625 20.214844 19.082031 20.445312 18.488281 20.105469 18.285156 19.980469 18.097656 19.792969 17.941406 19.539062 17.539062 18.90625 17.066406 17.855469 16.859375 16.871094 17.835938 17.078125 18.90625 17.539062 19.542969 17.941406 19.792969 18.097656 19.980469 18.285156 20.125 18.519531 20.445312 19.078125 20.214844 19.621094 19.917969 19.917969zM16.445312 7.996094C16.460938 7.996094 16.480469 7.996094 16.5 7.996094 17.761719 7.839844 19.183594 7.234375 19.96875 6.734375 20.324219 6.511719 20.601562 6.238281 20.796875 5.914062L20.820312 5.875C21.269531 5.09375 21.136719 4.164062 20.484375 3.515625 19.84375 2.871094 18.890625 2.738281 18.125 3.179688L18.074219 3.210938C17.761719 3.398438 17.492188 3.675781 17.265625 4.03125 16.738281 4.863281 16.140625 6.25 15.988281 7.480469 15.96875 7.621094 16.019531 7.761719 16.117188 7.863281 16.207031 7.949219 16.320312 7.996094 16.445312 7.996094zM17.941406 4.457031C18.101562 4.207031 18.285156 4.019531 18.519531 3.875 18.710938 3.765625 18.902344 3.71875 19.082031 3.71875 19.421875 3.71875 19.722656 3.886719 19.917969 4.082031 20.214844 4.375 20.445312 4.917969 20.105469 5.511719 19.980469 5.714844 19.792969 5.902344 19.539062 6.058594 18.90625 6.460938 17.839844 6.921875 16.859375 7.125 17.066406 6.140625 17.539062 5.089844 17.941406 4.457031zM7.464844 16C6.230469 16.152344 4.851562 16.746094 4.03125 17.265625 3.675781 17.488281 3.398438 17.761719 3.210938 18.074219L3.179688 18.125C2.730469 18.90625 2.863281 19.832031 3.515625 20.484375 3.90625 20.875 4.40625 21.078125 4.914062 21.078125 5.246094 21.078125 5.574219 20.992188 5.878906 20.816406L5.925781 20.789062C6.238281 20.601562 6.507812 20.324219 6.734375 19.96875 7.222656 19.199219 7.820312 17.785156 7.976562 16.515625L7.980469 16.515625C7.996094 16.371094 7.949219 16.234375 7.847656 16.132812 7.746094 16.03125 7.605469 15.984375 7.464844 16zM6.058594 19.542969C5.902344 19.792969 5.714844 19.980469 5.480469 20.125 4.921875 20.445312 4.378906 20.214844 4.082031 19.917969 3.785156 19.625 3.554688 19.082031 3.894531 18.488281 4.019531 18.285156 4.210938 18.097656 4.460938 17.941406 5.082031 17.546875 6.125 17.078125 7.109375 16.871094 6.90625 17.859375 6.453125 18.917969 6.058594 19.542969zM6.058594 19.542969"/>
</svg>

<svg xmlns="http://www.w3.org/2000/svg" width="32" height="32" viewBox="0 0 24 24">
    <path d="M11.984 6.797a5.206 5.206 0 0 0-5.203 5.2 5.206 5.206 0 0 0 5.203 5.202c2.868 0 5.2-2.332 5.2-5.203 0-2.867-2.332-5.2-5.2-5.2zm0 9.601a4.404 4.404 0 0 1-4.402-4.402 4.404 4.404 0 0 1 4.402-4.398 4.403 4.403 0 0 1 4.399 4.398 4.404 4.404 0 0 1-4.399 4.402zm0 0"/>
    <path d="M11.984 9.2a2.8 2.8 0 1 0 0 5.597 2.8 2.8 0 0 0 0-5.598zm0 4.8a2.002 2.002 0 0 1 0-4.004c1.102 0 2 .899 2 2a2.005 2.005 0 0 1-2 2.004zm0 0M11.621 5.844a.45.45 0 0 0 .363.176c.141 0 .274-.063.36-.176.726-.926 1.34-2.184 1.57-3.203.09-.41.094-.797.008-1.145l-.016-.062C13.668.563 12.922 0 12 0c-.91 0-1.676.578-1.906 1.438l-.016.05c-.086.356-.082.742.008 1.153.18.8.691 2.12 1.535 3.203zm.629-.492zm-1.383-3.707C11.035 1.023 11.582.8 12 .8c.418 0 .965.219 1.14.879a1.74 1.74 0 0 1-.007.789c-.149.652-.551 1.636-1.149 2.511-.57-.847-.964-1.84-1.117-2.515a1.764 1.764 0 0 1 0-.82zm0 0M12.379 18.152a.46.46 0 0 0-.36-.175h-.003a.46.46 0 0 0-.364.175c-.82 1.051-1.375 2.368-1.566 3.207-.09.41-.094.797-.004 1.153l.012.054C10.328 23.438 11.078 24 12 24c.91 0 1.676-.578 1.906-1.438l.012-.05c.09-.356.086-.742-.008-1.153-.18-.804-.687-2.125-1.531-3.207zm-.629.493h-.004zm1.383 3.71c-.164.622-.715.844-1.133.844-.418 0-.965-.219-1.145-.879a1.8 1.8 0 0 1 .012-.789c.149-.656.551-1.644 1.149-2.515.57.847.964 1.84 1.117 2.52.062.288.066.55 0 .82zm0 0M22.566 10.094l-.054-.016a2.553 2.553 0 0 0-1.153.008c-.812.184-2.144.695-3.222 1.535a.46.46 0 0 0 0 .723c1.047.82 2.37 1.379 3.218 1.57.215.047.418.07.618.07.183 0 .367-.023.539-.066l.054-.012C23.438 13.672 24 12.922 24 12c0-.91-.578-1.676-1.434-1.906zm-.207 3.039l-.039.012a1.8 1.8 0 0 1-.789-.012c-.664-.149-1.66-.555-2.531-1.149.848-.566 1.848-.96 2.535-1.117.29-.062.55-.066.82 0 .622.168.844.715.844 1.133 0 .418-.219.965-.84 1.133zm0 0M6.004 12.02a.463.463 0 0 0-.176-.368c-.93-.722-2.18-1.34-3.187-1.566a2.536 2.536 0 0 0-1.149-.008l-.058.016C.563 10.332 0 11.078 0 12c0 .91.578 1.676 1.434 1.906l.054.016c.172.039.352.062.54.062.199 0 .402-.023.613-.07.793-.18 2.101-.687 3.187-1.535a.448.448 0 0 0 .176-.36zm-3.54 1.113c-.288.062-.55.066-.82 0-.62-.168-.843-.715-.843-1.133 0-.418.219-.965.879-1.145.11-.023.226-.039.347-.039.141 0 .285.016.442.051.644.145 1.625.547 2.5 1.149-.895.605-1.88.976-2.504 1.117zm0 0M3.21 5.926c.188.312.466.582.821.808.813.516 2.192 1.106 3.434 1.262h.058a.458.458 0 0 0 .457-.516c-.156-1.265-.753-2.675-1.246-3.449a2.527 2.527 0 0 0-.804-.82l-.055-.031c-.781-.45-1.707-.317-2.36.336-.644.644-.777 1.593-.331 2.367zm.872-1.844a1.18 1.18 0 0 1 .828-.355c.188 0 .39.046.602.168.203.125.39.312.547.566.386.605.847 1.648 1.05 2.664a8.775 8.775 0 0 1-2.652-1.066 1.79 1.79 0 0 1-.582-.579c-.32-.558-.09-1.101.207-1.398zm0 0M20.79 18.074a2.499 2.499 0 0 0-.821-.808c-.785-.5-2.207-1.11-3.469-1.262a.451.451 0 0 0-.383.129.451.451 0 0 0-.129.383c.149 1.23.75 2.62 1.278 3.453.222.355.496.633.808.82l.047.031c.313.176.645.262.973.262.504 0 .996-.203 1.39-.598.645-.644.778-1.593.336-2.355zm-.872 1.844c-.293.297-.836.527-1.43.187a1.694 1.694 0 0 1-.547-.566 8.845 8.845 0 0 1-1.082-2.668c.977.207 2.047.668 2.684 1.07.25.157.437.344.582.579.32.558.09 1.101-.207 1.398zm0 0M16.445 7.996h.055c1.262-.156 2.684-.762 3.469-1.262.355-.222.633-.496.828-.82l.023-.039c.45-.781.317-1.71-.336-2.36-.64-.644-1.593-.777-2.359-.335l-.05.03a2.499 2.499 0 0 0-.81.821c-.527.832-1.124 2.219-1.277 3.45-.02.14.032.28.13.382.089.086.202.133.327.133zm1.496-3.539c.16-.25.344-.437.579-.582.19-.11.382-.156.562-.156.34 0 .64.168.836.363.297.293.527.836.187 1.43-.125.203-.312.39-.566.547-.633.402-1.7.863-2.68 1.066a8.845 8.845 0 0 1 1.082-2.668zm0 0M7.465 16c-1.235.152-2.613.746-3.434 1.266a2.462 2.462 0 0 0-.82.808l-.031.051c-.45.781-.317 1.707.336 2.36.39.39.89.593 1.398.593.332 0 .66-.086.965-.262l.047-.027c.312-.187.582-.465.808-.82.489-.77 1.086-2.184 1.243-3.453h.003A.462.462 0 0 0 7.465 16zm-1.406 3.543c-.157.25-.344.437-.579.582-.558.32-1.101.09-1.398-.207-.297-.293-.527-.836-.187-1.43.125-.203.316-.39.566-.547a8.79 8.79 0 0 1 2.648-1.07c-.203.988-.656 2.047-1.05 2.672zm0 0"/>
</svg>
